gnome/icons/Varda/apps/scalable/teams-for-linux.svg

<?xml version="1.0" encoding="UTF-8" standalone="no"?>
<svg
   xmlns:dc="http://purl.org/dc/elements/1.1/"
   xmlns:cc="http://creativecommons.org/ns#"
   xmlns:rdf="http://www.w3.org/1999/02/22-rdf-syntax-ns#"
   xmlns:svg="http://www.w3.org/2000/svg"
   xmlns="http://www.w3.org/2000/svg"
   xmlns:sodipodi="http://sodipodi.sourceforge.net/DTD/sodipodi-0.dtd"
   xmlns:inkscape="http://www.inkscape.org/namespaces/inkscape"
   width="64px"
   height="64px"
   viewBox="0 0 64 64"
   version="1.1"
   id="svg13"
   sodipodi:docname="teams-for-linux.svg"
   inkscape:version="1.0.2 (e86c870879, 2021-01-15)">
  <metadata
     id="metadata19">
    <rdf:RDF>
      <cc:Work
         rdf:about="">
        <dc:format>image/svg+xml</dc:format>
        <dc:type
           rdf:resource="http://purl.org/dc/dcmitype/StillImage" />
      </cc:Work>
    </rdf:RDF>
  </metadata>
  <defs
     id="defs17" />
  <sodipodi:namedview
     pagecolor="#ffffff"
     bordercolor="#666666"
     borderopacity="1"
     objecttolerance="10"
     gridtolerance="10"
     guidetolerance="10"
     inkscape:pageopacity="0"
     inkscape:pageshadow="2"
     inkscape:window-width="2560"
     inkscape:window-height="1403"
     id="namedview15"
     showgrid="false"
     inkscape:zoom="15.75"
     inkscape:cx="32"
     inkscape:cy="32"
     inkscape:window-x="0"
     inkscape:window-y="0"
     inkscape:window-maximized="1"
     inkscape:current-layer="surface1" />
  <g
     id="surface1">
    <path
       style="fill:#2e3436;fill-opacity:1;fill-rule:nonzero;stroke:none"
       d="m 51.59375,11.082031 c -3.664062,0 -6.613281,2.953125 -6.613281,6.617188 0,3.664062 2.949219,6.613281 6.613281,6.613281 3.664062,0 6.613281,-2.949219 6.613281,-6.613281 0,-3.664063 -2.949219,-6.617188 -6.613281,-6.617188 z m -6.613281,15.875 c -1.46875,0 -2.648438,1.179688 -2.648438,2.648438 V 44.15625 c 0,5.128906 4.132813,9.261719 9.261719,9.261719 5.128906,0 9.261719,-4.132813 9.261719,-9.261719 V 29.605469 c 0,-1.46875 -1.179688,-2.648438 -2.648438,-2.648438 z m 0,0"
       id="path2" />
    <path
       style="fill:#52677c;fill-opacity:1;fill-rule:nonzero;stroke:none"
       d="m 31.75,3.144531 c -4.765625,0 -8.597656,3.835938 -8.597656,8.601563 0,4.761718 3.832031,8.597656 8.597656,8.597656 4.765625,0 8.597656,-3.835938 8.597656,-8.597656 0,-4.765625 -3.832031,-8.601563 -8.597656,-8.601563 z M 22.488281,24.3125 c -1.464843,0 -2.644531,1.179688 -2.644531,2.644531 v 22.492188 c 0,6.59375 5.308594,11.90625 11.90625,11.90625 6.597656,0 11.90625,-5.3125 11.90625,-11.90625 V 26.957031 c 0,-1.464843 -1.179688,-2.644531 -2.644531,-2.644531 z m 0,0"
       id="path4" />
    <path
       style="fill:#2e3436;fill-opacity:1;fill-rule:nonzero;stroke:none"
       d="m 5.292969,21.667969 h 21.164062 c 1.460938,0 2.648438,1.183593 2.648438,2.644531 v 21.167969 c 0,1.460937 -1.1875,2.644531 -2.648438,2.644531 H 5.292969 c -1.460938,0 -2.648438,-1.183594 -2.648438,-2.644531 V 24.3125 c 0,-1.460938 1.1875,-2.644531 2.648438,-2.644531 z m 0,0"
       id="path6" />
    <path
       style="fill:#52677c;fill-opacity:1;fill-rule:nonzero;stroke:none"
       d="m 15.214844,29.605469 h 1.320312 c 0.367188,0 0.664063,0.292969 0.664063,0.660156 v 10.582031 c 0,0.367188 -0.296875,0.664063 -0.664063,0.664063 h -1.320312 c -0.367188,0 -0.664063,-0.296875 -0.664063,-0.664063 V 30.265625 c 0,-0.367187 0.296875,-0.660156 0.664063,-0.660156 z m 0,0"
       id="path8" />
    <path
       style="fill:#52677c;fill-opacity:1;fill-rule:nonzero;stroke:none"
       d="m 11.246094,29.605469 h 9.257812 c 0.367188,0 0.664063,0.292969 0.664063,0.660156 v 0.660156 c 0,0.367188 -0.296875,0.664063 -0.664063,0.664063 h -9.257812 c -0.367188,0 -0.664063,-0.296875 -0.664063,-0.664063 v -0.660156 c 0,-0.367187 0.296875,-0.660156 0.664063,-0.660156 z m 0,0"
       id="path10" />
  </g>
</svg>

<?xml version="1.0" encoding="UTF-8"?>
<svg xmlns="http://www.w3.org/2000/svg" xmlns:xlink="http://www.w3.org/1999/xlink" width="64px" height="64px" viewBox="0 0 64 64" version="1.1">
<g id="surface1">
<path style=" stroke:none;fill-rule:nonzero;fill:rgb(22.352941%,28.627452%,67.058825%);fill-opacity:1;" d="M 51.59375 11.082031 C 47.929688 11.082031 44.980469 14.035156 44.980469 17.699219 C 44.980469 21.363281 47.929688 24.3125 51.59375 24.3125 C 55.257812 24.3125 58.207031 21.363281 58.207031 17.699219 C 58.207031 14.035156 55.257812 11.082031 51.59375 11.082031 Z M 44.980469 26.957031 C 43.511719 26.957031 42.332031 28.136719 42.332031 29.605469 L 42.332031 44.15625 C 42.332031 49.285156 46.464844 53.417969 51.59375 53.417969 C 56.722656 53.417969 60.855469 49.285156 60.855469 44.15625 L 60.855469 29.605469 C 60.855469 28.136719 59.675781 26.957031 58.207031 26.957031 Z M 44.980469 26.957031 "/>
<path style=" stroke:none;fill-rule:nonzero;fill:rgb(36.078432%,41.960785%,75.294119%);fill-opacity:1;" d="M 31.75 3.144531 C 26.984375 3.144531 23.152344 6.980469 23.152344 11.746094 C 23.152344 16.507812 26.984375 20.34375 31.75 20.34375 C 36.515625 20.34375 40.347656 16.507812 40.347656 11.746094 C 40.347656 6.980469 36.515625 3.144531 31.75 3.144531 Z M 22.488281 24.3125 C 21.023438 24.3125 19.84375 25.492188 19.84375 26.957031 L 19.84375 49.449219 C 19.84375 56.042969 25.152344 61.355469 31.75 61.355469 C 38.347656 61.355469 43.65625 56.042969 43.65625 49.449219 L 43.65625 26.957031 C 43.65625 25.492188 42.476562 24.3125 41.011719 24.3125 Z M 22.488281 24.3125 "/>
<path style=" stroke:none;fill-rule:nonzero;fill:rgb(22.352941%,28.627452%,67.058825%);fill-opacity:1;" d="M 5.292969 21.667969 L 26.457031 21.667969 C 27.917969 21.667969 29.105469 22.851562 29.105469 24.3125 L 29.105469 45.480469 C 29.105469 46.941406 27.917969 48.125 26.457031 48.125 L 5.292969 48.125 C 3.832031 48.125 2.644531 46.941406 2.644531 45.480469 L 2.644531 24.3125 C 2.644531 22.851562 3.832031 21.667969 5.292969 21.667969 Z M 5.292969 21.667969 "/>
<path style=" stroke:none;fill-rule:nonzero;fill:rgb(77.254903%,79.215688%,91.37255%);fill-opacity:1;" d="M 15.214844 29.605469 L 16.535156 29.605469 C 16.902344 29.605469 17.199219 29.898438 17.199219 30.265625 L 17.199219 40.847656 C 17.199219 41.214844 16.902344 41.511719 16.535156 41.511719 L 15.214844 41.511719 C 14.847656 41.511719 14.550781 41.214844 14.550781 40.847656 L 14.550781 30.265625 C 14.550781 29.898438 14.847656 29.605469 15.214844 29.605469 Z M 15.214844 29.605469 "/>
<path style=" stroke:none;fill-rule:nonzero;fill:rgb(77.254903%,79.215688%,91.37255%);fill-opacity:1;" d="M 11.246094 29.605469 L 20.503906 29.605469 C 20.871094 29.605469 21.167969 29.898438 21.167969 30.265625 L 21.167969 30.925781 C 21.167969 31.292969 20.871094 31.589844 20.503906 31.589844 L 11.246094 31.589844 C 10.878906 31.589844 10.582031 31.292969 10.582031 30.925781 L 10.582031 30.265625 C 10.582031 29.898438 10.878906 29.605469 11.246094 29.605469 Z M 11.246094 29.605469 "/>
</g>
</svg>
